%
(LUDOFIGURE_LATHE_G8)
(T2 NR=0.4 - ZMIN=-32. - GROOVE TURNING)
(T3 NR=0.4 - ZMIN=-29.484 - GENERAL TURNING)
(T4 NR=0.4 - ZMIN=-29.084 - GENERAL TURNING)
N10 G8
N11 G90 G18
N12 G21
N13 G53 G0 X0.
N14 G53 G0 Z0.

(FACE1)
N15 M0 (CHANGE TO T3 ON REAR TOOL POST)
N16 T3 M6 G43 H3
N18 G90 G95 G18
N19 G54
N20 G97 S526 M3
N21 G0 X13. Z1.214
N22 G96 D1150 S43 M3
N23 G0 X8.
N24 G1 X7.414 F0.3
N25 X6. Z-0.2
N26 X-0.4 F0.15
N27 X1.014 Z1.214 F0.3
N28 G0 X8.
N29 Z0.814
N30 G1 X7.414 F0.3
N31 X6. Z-0.6
N32 X-0.4 F0.15
N33 X1.014 Z0.814 F0.3
N34 G0 X8.
N35 Z0.414
N36 G1 X7.414 F0.3
N37 X6. Z-1.
N38 X-0.4 F0.15
N39 X1.014 Z0.414 F0.3
N40 G0 X13.
N41 G97 S526 M3

(PROFILE ROUGHING1)
N42 M5
N43 M1
N45 G97 S622 M3
N46 G0 X11. Z0.
N47 G96 D1150 S43 M3
N48 G0 X5.6
N49 G1 Z-22.088 F0.15
N50 G3 X5.748 Z-23.353 I-28.876 K-4.014
N51 X5.736 Z-27.297 I-20.169 K-1.91
N52 G1 Z-29.1
N53 X6.
N54 X7. Z-28.1
N55 G0 Z0.
N56 X5.2
N57 G1 Z-19.852 F0.15
N58 G3 X5.6 Z-22.088 I-28.476 K-6.249
N59 G1 X6.6 Z-21.088
N60 G0 Z0.
N61 X4.8
N62 G1 Z-18.248 F0.15
N63 G3 X5.2 Z-19.852 I-28.076 K-7.853
N64 G1 X6.2 Z-18.852
N65 G0 Z0.
N66 X4.4
N67 G1 Z-4.339 F0.15
N68 G3 Z-7.461 I-4.75 K-1.561
N69 G1 Z-16.938
N70 G3 X4.8 Z-18.248 I-27.676 K-9.164
N71 G1 X5.8 Z-17.248
N72 G0 Z0.
N73 X4.
N74 G1 Z-3.435 F0.15
N75 G3 X4.4 Z-4.339 I-4.35 K-2.465
N76 G1 X5.4 Z-3.339
N77 G0 Z0.
N78 X3.6
N79 G1 Z-2.834 F0.15
N80 G3 X4. Z-3.435 I-3.95 K-3.066
N81 G1 X5. Z-2.435
N82 G0 Z0.
N83 X3.2
N84 G1 Z-2.379 F0.15
N85 G3 X3.6 Z-2.834 I-3.55 K-3.521
N86 G1 X4.6 Z-1.834
N87 G0 Z0.
N88 X2.8
N89 G1 Z-2.017 F0.15
N90 G3 X3.2 Z-2.379 I-3.15 K-3.883
N91 G1 X4.2 Z-1.379
N92 G0 Z0.
N93 X2.4
N94 G1 Z-1.724 F0.15
N95 G3 X2.8 Z-2.017 I-2.75 K-4.176
N96 G1 X3.8 Z-1.017
N97 G0 Z0.
N98 X2.
N99 G1 Z-1.487 F0.15
N100 G3 X2.4 Z-1.724 I-2.35 K-4.413
N101 G1 X3.4 Z-0.724
N102 G0 Z0.
N103 X1.6
N104 G1 Z-1.296 F0.15
N105 G3 X2. Z-1.487 I-1.95 K-4.604
N106 G1 X3. Z-0.487
N107 G0 Z0.
N108 X1.2
N109 G1 Z-1.146 F0.15
N110 G3 X1.6 Z-1.296 I-1.55 K-4.754
N111 G1 X2.6 Z-0.296
N112 G0 Z0.
N113 X0.943
N114 G1 Z-1.07 F0.15
N115 G3 X1.2 Z-1.146 I-1.293 K-4.83
N116 G1 X2.2 Z-0.146
N117 G0 Z0.
N118 X0.687
N119 G1 Z-1.009 F0.15
N120 G3 X0.943 Z-1.07 I-1.037 K-4.891
N121 G1 X1.943 Z-0.07
N122 G0 X5.65
N123 Z-7.461
N124 X5.4
N125 G1 X4.4 F0.15
N126 G3 X4. Z-8.365 I-4.75 K1.561
N127 G1 Z-15.808
N128 G3 X4.4 Z-16.938 I-27.276 K-10.293
N129 G1 X5.4 Z-15.938
N130 G0 Z-8.365
N131 X5.
N132 G1 X4. F0.15
N133 X3.98 Z-8.4
N134 X3.6 Z-9.058
N135 Z-14.805
N136 G3 X4. Z-15.808 I-26.876 K-11.297
N137 G1 X5. Z-14.808
N138 G0 Z-9.058
N139 X4.6
N140 G1 X3.6 F0.15
N141 X3.2 Z-9.751
N142 Z-13.897
N143 G3 X3.6 Z-14.805 I-26.476 K-12.205
N144 G1 X4.6 Z-13.805
N145 G0 Z-9.751
N146 X4.2
N147 G1 X3.2 F0.15
N148 X2.933 Z-10.213
N149 Z-13.277
N150 G2 X3.102 Z-13.687 I4.313 K1.54
N151 G1 X3.2 Z-13.897
N152 X4.2 Z-12.897
N153 G0 Z-10.213
N154 X3.933
N155 G1 X2.933 F0.15
N156 X2.918 Z-10.239
N157 G2 X2.933 Z-13.277 I4.328 K-1.498
N158 G1 X3.933 Z-12.277
N159 G0 X6.736
N160 Z-27.297
N161 G1 X5.736 F0.15
N162 G3 X5.471 Z-29.1 I-20.157 K2.034
N163 G1 X5.736
N164 X6.736 Z-28.1
N165 G0 X11.
N166 G97 S622 M3

(PROFILE FINISHING1)
N167 M5
N168 M1
N170 G97 S622 M3
N171 G0 X11. Z0.414
N172 G96 D1150 S43 M3
N173 G0 X2.382
N174 G1 X-1.814 F0.3
N175 X-0.4 Z-1.
N176 G3 X3.844 Z-8.35 K-4.9 F0.05
N177 G1 X6.05 F0.3
N178 G0 X6.9
N179 Z0.414
N180 X2.382
N181 G1 X-1.814 F0.3
N182 X-0.4 Z-1.
N183 G3 X3.844 Z-8.35 K-4.9 F0.05
N184 G1 X4.578 F0.3
N185 Z-9.327
N186 X2.777 Z-10.197
N187 G2 X2.962 Z-13.73 I4.419 K-1.539 F0.05
N188 G3 X5.598 Z-23.362 I-26.287 K-12.372
N189 X5.241 Z-29.484 I-20.069 K-1.9
N190 G1 X7.241 F0.3
N191 Z-20.626
N192 G0 Z-9.327
N193 X5.589
N194 G1 X4.578 F0.3
N195 X2.777 Z-10.197
N196 G2 X2.962 Z-13.73 I4.419 K-1.539 F0.05
N197 G3 X5.598 Z-23.362 I-26.287 K-12.372
N198 X5.241 Z-29.484 I-20.069 K-1.9
N199 G1 X7.282 F0.3
N200 G0 X11.
N201 Z50.
N202 G97 S622 M3
N203 G53 G0 X0.
N204 G53 G0 Z0.

(PROFILE FINISHING1 2)
N205 M5
N206 M1
N207 M0 (CHANGE TO T4 ON REAR TOOL POST)
N208 T4 M6 G43 H4
N210 G90 G95 G18
N211 G54
N212 G97 S622 M3
N213 G0 X11. Z50.4
N214 G96 D1150 S43 M3
N215 G0 Z-2.786
N216 X7.141
N217 G1 X5.579 Z-4.034 F0.3
N218 G2 X4.47 Z-6.044 I1.872 K-2.344
N219 G3 X3.485 Z-8.486 I-4.87 K0.544 F0.05
N220 G2 X2.962 Z-13.33 I3.711 K-2.851
N221 G3 X5.598 Z-22.962 I-26.287 K-12.372
N222 X5.241 Z-29.084 I-20.069 K-1.9
N223 G1 X7.241 F0.3
N224 Z-20.226
N225 G0 Z-2.786
N226 X7.141
N227 G1 X5.579 Z-4.034 F0.3
N228 G2 X4.47 Z-6.044 I1.872 K-2.344
N229 G3 X3.485 Z-8.486 I-4.87 K0.544 F0.05
N230 G2 X2.962 Z-13.33 I3.711 K-2.851
N231 G3 X5.598 Z-22.962 I-26.287 K-12.372
N232 X5.241 Z-29.084 I-20.069 K-1.9
N233 G1 X7.282 F0.3
N234 G0 X11.
N235 Z50.4
N236 G97 S622 M3
N237 G53 G0 X0.
N238 G53 G0 Z0.

(PART1)
N239 M5
N240 M1
N241 M0 (CHANGE TO T2 ON REAR TOOL POST)
N242 T2 M6 G43 H2
N244 G90 G95 G18
N245 G54
N246 G97 S855 M3
N247 G0 X8. Z50.
N248 G96 D1150 S43 M3
N249 G0 Z-32.
N250 G1 X-0.4 F0.07
N251 X8.
N252 G0 Z50.
N253 G97 S855 M3

N254 M5
N255 G53 G0 X0.
N256 G53 G0 Z0.
N257 M30
%
